T: Hedgehope Hill
M: 4/4
L: 1/8
K: Amaj
|:A / Bm / |Em /  /  / |D / Bm / |Bm / E / |A / Bm / |Em /  /  / |D / Bm / |Bm / E / :||:A / / / |Bm / / / |Bm / / / |E / / / |A / / / |Bm / / / |E / A / |E / A / :|
